X:1
T: The Duke of Buccleuch
C:William Marshall
R:Reel
Q: 232
K:F
M:4/4
L:1/8
|:FG Ac fg ag|fd cA GF DG|FG Ac fg ag|fc de f2 f2|
FG Ac fg ag|fd cA GF DG|FG Ac fg ag|fc de f2 fg|
af ge fc df|df Af GF Dg|af ge fc df|cA de f2 fg|
af ge fc df|df Af GF Dg|af ge fc df|cA de f2 f2:|
